!!!COM: Fanny (Mendelssohn) Hensel
!!!CNT: Deutsch
!!!TXO: Deutsch
!!!OTL: "Wandrers Nachtlied"
!!!LYR: 
!!!OPR: 
!!!OPS: Op. 
!!!ONM: No. 
!!!ENC: Emily Thomas
!!!YOR: Hensel: Ausgewa2hlte Lieder fu2r Singstimme und Klavier
!!!YOR: Breitkopf & Hartel, 1994 vol. 2
!!!ODT: 1825/
!!NB: Vocal melody and text encoded.
**kern	**silbe
=0-	=0
*clefG2	*
*k[b-e-a-d-]	*
*M4/4	*
*MM60	*
2r	.
{4a-	{Der
4g	du
=1	=1
4f	von
4e-	dem
4dd-	Him-
8cc	-mel
8b-	|
=2	=2
4b-}	bist,}
4r	.
{4b-	{al-
4an	-les
=3	=3
4g-	Leid
4f	und
4dd-	Schmer-
8cc	-zen
8b-	|
=4	=4
4b-	stil-
4an	-lest,
4.b-	den,
8f	der
=5	=5
8a-	dop-
8g-	|
4f}	-pelt,}
{4.b-	{dop-
8f	-pelt
=6	=6
8a-	e-
8g-	-lend
4f	ist,
8e-	dop-
8f	-pelt
8g-	mit
8a-	Er-
=7	=7
8b-	-quik-
8cc-	|
8dd-	|
8g-	-kung
2d-	fu2l-
=8	=8
4g-}	-lest,}
4r	.
4r	.
{8b-	{der
8a-	du
=9	=9
4.g	von
8g	dem
4a-	Him-
4b-	-mel
=10	=10
4cc-}	bist,}
4r	.
4r	.
{8cc-	{al-
8b-	-les
=11	=11
4.an	Leid
8b-	und
4cc	Schmer-
4e-	-zen
=12	=12
2d-	stillst,
4B-	den
4B-	der
=13	=13
4.b-	dop-
8B-	-pelt
4B-	e-
4B-	-lend
=14	=14
4b-}	ist,}
4r	.
{4B-	{dop-
4B-	-pelt
=15	=15
4c-	mit
4cn	Er-
4d-	-quik-
4dn	|
=16	=16
4e-	|
4f	|
4g-	|
4c	-kung
=17	=17
1d-	fu2l-
=18	=18
4g-}	-lest,}
4r	.
2r	.
=19	=19
1r	.
=20	=20
{8b--	{ach!
8b--	ich
8a-	bin
8g-	des
4.b--	Trei-
8g-	-bens
=21	=21
4f	mu2-
4a-	-de,
8r	.
4cc-	was
8a-	soll
=22	=22
4.g	all
8b-	der
4dd-	Schmerz
8cc	und
8b-	|
=23	=23
4f}	Lust?}
4r	.
2r	.
=24	=24
1r	.
=25	=25
{[2dd-	{Su2-
8dd-]	|
8b-	|
8a-	-sser
8g-	|
=26	=26
2g-	Frie-
4f}	-de,}
4r	.
=27	=27
{[2dd-	{su2-
8dd-]	|
8b-	|
8a-	-sser
8g	|
=28	=28
2g	Frie-
4a-}	-de!}
4r	.
=29	=29
{4a-	Komm,
4g	|
4f	|
4e-	ach
=30	=30
4dd-	komm
8cc	in
8b-	|
[2b-	mei-
=31	=31
4b-]	|
4an	|
4g-	|
4f	-ne
=32	=32
4dd-	Brust,
8cc	ach
8b-	|
4b-	komm!
4an}	|}
=33	=33
{4.b-	{Su-
8f	-sser
8a-	Frie-
8g-	|
4f	-de,
=34	=34
4.b-	su2
8f	-sser
8a-	Frie-
8g-	|
4f}	-de!}
=35	=35
{8e-	{Komm,
8f	|
8g-	ach
8a-	|
8b-	komm
8cc-	|
8dd-	|
8g-	in
=36	=36
4b-	mei-
4a-	-ne
4a-	Brust,
4g	in
=37	=37
4g	mei-
4f	-ne
4f}	Brust,}
{8e-	{ach
8d-	|
=38	=38
8c	komm
8e-	|
[2.a-	|
=39	=39
8a-]	|
8cc	|
8b-	in
8a-	|
8g	mei-
8f	|
8e-	-ne
8d-	|
=40	=40
4c}	Brust,}
4r	.
2r	.
=41	=41
{2.cc	{su2-
4b-	-sser
=43	=43
4b-	Frie-
4a-}	-de,}
4r	.
{8g	{ach
8f	|
=43	=43
4.e-	komm
8c	in
4.e-	mei-
8d-	-ne
=44	=44
2c}	Brust!}
2r	.
==	==
*-	*-
